;Generated with Cura_SteamEngine 15.04
M109 S210.0
M42 P10 S1 ; Turn on LED
G21 ; set units to millimeters
G90 ; use absolute coordinates
M82 ; use absolute distances for extrusion
M204 S500

G0 Z1 F300 ; Make sure main Z drop isn't too fast

;Move to side and put down a line to prime the nozzle
G1 X64.332 Y24.938 F9000
G1 Z0.315 F300
G92 E0
G1 X74.332 Y-44.938 E3.9642 F2520
G1 X74.964 Y-44.938 E4.0001
G1 X74.964 Y24.938 E7.9643
G1 X74.532 Y24.938 E7.9888
G1 X74.332 Y24.938 F2520
G1 X73.876 Y25.394 F9000
G92 E0
G1 X73.876 Y-45.394 E4.0159 F1680
G1 X75.42 Y-45.394 E4.1035
G1 X75.42 Y25.394 E8.1195
G1 X74.076 Y25.394 E8.1957
G1 X73.876 Y25.394 F1680
G1 X73.876 Y23.394 F1680

G0 Z1 F300
G0 X0 Y0 F5000

G92 X77.7 Y52.3 ; Offset Origin from center to top right corner to accommodate Astroprint requirement
G92 E0
;Layer count: 27
;LAYER:0
M106 S255
G1 F18000 E-3.00000
G0 F4800 X58.504 Y47.911 Z0.300
;TYPE:WALL-INNER
G1 F18000 E0.00000
G1 F1200 X58.823 Y47.523 E0.02506
G1 X59.149 Y47.180 E0.04867
G1 X59.907 Y46.531 E0.09845
G1 X60.280 Y46.269 E0.12119
G1 X60.663 Y46.038 E0.14351
G1 X61.084 Y45.819 E0.16718
G1 X61.519 Y45.628 E0.19089
G1 X61.957 Y45.467 E0.21417
G1 X62.447 Y45.325 E0.23962
G1 X62.899 Y45.226 E0.26270
G1 X63.367 Y45.157 E0.28631
G1 X63.873 Y45.114 E0.31164
G1 X64.747 Y45.020 E0.35550
G1 X65.227 Y44.920 E0.37996
G1 X65.677 Y44.794 E0.40327
G1 X66.458 Y44.490 E0.44508
G1 X67.296 Y44.036 E0.49263
G1 X67.973 Y43.544 E0.53439
G1 X68.353 Y43.211 E0.55959
G1 X68.925 Y42.597 E0.60146
G1 X69.233 Y42.198 E0.62661
G1 X69.686 Y41.470 E0.66938
G1 X70.060 Y40.658 E0.71398
G1 X70.327 Y39.802 E0.75872
G1 X70.479 Y38.937 E0.80254
G1 X70.551 Y38.012 E0.84882
G1 X70.714 Y37.092 E0.89544
G1 X71.016 Y36.146 E0.94498
G1 X71.411 Y35.312 E0.99102
G1 X71.915 Y34.530 E1.03744
G1 X72.548 Y33.782 E1.08632
G1 X72.883 Y33.459 E1.10954
G1 X73.653 Y32.855 E1.15836
G1 X74.054 Y32.601 E1.18204
G1 X74.457 Y32.381 E1.20495
G1 X74.876 Y32.186 E1.22801
G1 X75.345 Y32.004 E1.25311
G1 X76.260 Y31.755 E1.30042
G1 X77.195 Y31.626 E1.34751
G1 X77.691 Y31.609 E1.37227
G1 X78.175 Y31.623 E1.39642
G1 X78.631 Y31.668 E1.41928
G1 X79.079 Y31.742 E1.44194
G1 X79.569 Y31.856 E1.46704
G1 X80.030 Y31.997 E1.49109
G1 X80.470 Y32.163 E1.51455
G1 X81.300 Y32.575 E1.56078
G1 X81.750 Y32.857 E1.58727
G1 X82.472 Y33.419 E1.63292
G1 X82.818 Y33.748 E1.65674
G1 X83.135 Y34.091 E1.68004
G1 X83.421 Y34.445 E1.70275
G1 X83.728 Y34.876 E1.72915
G1 X84.183 Y35.687 E1.77554
G1 X84.387 Y36.150 E1.80078
G1 X84.546 Y36.596 E1.82440
G1 X84.674 Y37.042 E1.84755
G1 X84.773 Y37.494 E1.87064
G1 X84.888 Y38.496 E1.92096
G1 X84.982 Y39.364 E1.96452
G1 X85.189 Y40.218 E2.00835
G1 X85.341 Y40.656 E2.03149
G1 X85.705 Y41.452 E2.07515
G1 X85.976 Y41.913 E2.10183
G1 X86.463 Y42.584 E2.14320
G1 X87.028 Y43.190 E2.18453
G1 X87.424 Y43.543 E2.21100
G1 X88.128 Y44.050 E2.25428
G1 X88.543 Y44.291 E2.27822
G1 X89.257 Y44.621 E2.31747
G1 X89.329 Y44.659 E2.32153
G1 X90.140 Y44.911 E2.36390
G1 X90.641 Y45.020 E2.38948
G1 X91.451 Y45.110 E2.43014
G1 X92.003 Y45.155 E2.45777
G1 X92.911 Y45.315 E2.50377
G1 X93.369 Y45.444 E2.52750
G1 X93.800 Y45.596 E2.55030
G1 X94.703 Y46.020 E2.60007
G1 X95.477 Y46.519 E2.64602
G1 X95.887 Y46.844 E2.67212
G1 X96.216 Y47.144 E2.69433
G1 X96.546 Y47.489 E2.71815
G1 X96.848 Y47.847 E2.74152
G1 X97.373 Y48.613 E2.78785
G1 X97.624 Y49.066 E2.81369
G1 X97.985 Y49.915 E2.85971
G1 X98.141 Y50.412 E2.88570
G1 X98.246 Y50.857 E2.90851
G1 X98.375 Y51.799 E2.95595
G1 X98.392 Y52.300 E2.98096
G1 X98.377 Y52.765 E3.00417
G1 X98.331 Y53.236 E3.02778
G1 X98.257 Y53.684 E3.05043
G1 X98.150 Y54.148 E3.07419
G1 X97.999 Y54.643 E3.10001
G1 X97.835 Y55.076 E3.12311
G1 X97.637 Y55.508 E3.14682
G1 X97.423 Y55.905 E3.16932
G1 X97.171 Y56.307 E3.19299
G1 X96.895 Y56.690 E3.21654
G1 X96.576 Y57.078 E3.24160
G1 X96.250 Y57.421 E3.26521
G1 X95.915 Y57.729 E3.28791
G1 X95.500 Y58.064 E3.31452
G1 X95.125 Y58.327 E3.33737
G1 X94.310 Y58.785 E3.38401
G1 X93.443 Y59.133 E3.43062
G1 X92.953 Y59.275 E3.45607
G1 X92.501 Y59.374 E3.47916
G1 X92.033 Y59.443 E3.50276
G1 X91.527 Y59.486 E3.52810
G1 X90.653 Y59.580 E3.57195
G1 X90.173 Y59.680 E3.59641
G1 X89.723 Y59.806 E3.61973
G1 X88.927 Y60.115 E3.66233
G1 X88.140 Y60.541 E3.70697
G1 X87.428 Y61.054 E3.75075
G1 X87.047 Y61.389 E3.77607
G1 X86.475 Y62.003 E3.81793
G1 X86.167 Y62.402 E3.84308
G1 X85.714 Y63.130 E3.88586
G1 X85.340 Y63.942 E3.93046
G1 X85.073 Y64.798 E3.97519
G1 X84.921 Y65.663 E4.01901
G1 X84.849 Y66.588 E4.06530
G1 X84.686 Y67.508 E4.11191
G1 X84.386 Y68.449 E4.16119
G1 X83.990 Y69.286 E4.20738
G1 X83.484 Y70.071 E4.25398
G1 X82.854 Y70.816 E4.30265
G1 X82.156 Y71.445 E4.34953
G1 X81.750 Y71.744 E4.37468
G1 X81.346 Y71.998 E4.39849
G1 X80.936 Y72.222 E4.42180
G1 X80.523 Y72.414 E4.44452
G1 X80.076 Y72.587 E4.46844
G1 X79.635 Y72.726 E4.49151
G1 X79.140 Y72.846 E4.51692
G1 X78.204 Y72.975 E4.56406
G1 X77.711 Y72.991 E4.58866
G1 X77.223 Y72.977 E4.61302
G1 X76.765 Y72.932 E4.63598
G1 X75.857 Y72.752 E4.68216
G1 X75.362 Y72.602 E4.70797
G1 X74.931 Y72.438 E4.73097
G1 X74.494 Y72.237 E4.75497
G1 X74.090 Y72.020 E4.77785
G1 X73.694 Y71.772 E4.80116
G1 X73.307 Y71.493 E4.82496
G1 X72.921 Y71.175 E4.84991
G1 X72.272 Y70.516 E4.89606
G1 X71.934 Y70.097 E4.92292
G1 X71.671 Y69.723 E4.94573
G1 X71.219 Y68.916 E4.99187
G1 X71.030 Y68.486 E5.01531
G1 X70.870 Y68.047 E5.03862
G1 X70.722 Y67.542 E5.06487
G1 X70.626 Y67.101 E5.08739
G1 X70.556 Y66.624 E5.11144
G1 X70.420 Y65.253 E5.18018
G1 X70.320 Y64.773 E5.20464
G1 X70.194 Y64.323 E5.22795
G1 X69.885 Y63.527 E5.27055
G1 X69.459 Y62.740 E5.31520
G1 X68.946 Y62.028 E5.35898
G1 X68.611 Y61.647 E5.38429
G1 X67.997 Y61.075 E5.42616
G1 X67.598 Y60.767 E5.45130
G1 X66.870 Y60.314 E5.49408
G1 X66.058 Y59.940 E5.53868
G1 X65.202 Y59.673 E5.58342
G1 X64.337 Y59.521 E5.62723
G1 X63.412 Y59.449 E5.67352
G1 X62.492 Y59.286 E5.72014
G1 X61.551 Y58.986 E5.76941
G1 X60.714 Y58.590 E5.81561
G1 X59.929 Y58.084 E5.86220
G1 X59.554 Y57.788 E5.88604
G1 X59.182 Y57.452 E5.91105
G1 X58.555 Y56.756 E5.95778
G1 X58.256 Y56.350 E5.98294
G1 X57.998 Y55.940 E6.00711
G1 X57.774 Y55.529 E6.03046
G1 X57.586 Y55.123 E6.05278
G1 X57.412 Y54.674 E6.07680
G1 X57.274 Y54.235 E6.09976
G1 X57.154 Y53.740 E6.12517
G1 X57.025 Y52.801 E6.17246
G1 X57.009 Y52.311 E6.19692
G1 X57.023 Y51.823 E6.22128
G1 X57.069 Y51.357 E6.24464
G1 X57.144 Y50.910 E6.26725
G1 X57.251 Y50.448 E6.29091
G1 X57.398 Y49.962 E6.31624
G1 X57.562 Y49.531 E6.33925
G1 X57.763 Y49.094 E6.36325
G1 X57.980 Y48.690 E6.38612
G1 X58.228 Y48.294 E6.40944
G1 X58.504 Y47.911 E6.43299
G0 F4800 X59.397 Y49.035
G1 F1200 X59.029 Y49.659 E6.46913
G1 X58.708 Y50.412 E6.50997
G1 X58.507 Y51.152 E6.54822
G1 X58.406 Y51.900 E6.58588
G1 X58.392 Y52.335 E6.60759
G1 X58.443 Y53.069 E6.64430
G1 X58.595 Y53.821 E6.68258
G1 X58.825 Y54.491 E6.71792
G1 X59.184 Y55.224 E6.75864
G1 X59.407 Y55.579 E6.77956
G1 X59.637 Y55.892 E6.79893
G1 X59.897 Y56.200 E6.81904
G1 X60.422 Y56.711 E6.85559
G1 X61.037 Y57.171 E6.89391
G1 X61.660 Y57.520 E6.92954
G1 X61.735 Y57.560 E6.93378
G1 X62.427 Y57.830 E6.97084
G1 X63.172 Y58.017 E7.00916
G1 X63.890 Y58.098 E7.04520
G1 X64.458 Y58.140 E7.07362
G1 X64.972 Y58.214 E7.09953
G1 X65.493 Y58.320 E7.12605
G1 X66.050 Y58.473 E7.15487
G1 X66.553 Y58.648 E7.18144
G1 X67.019 Y58.843 E7.20664
G1 X67.499 Y59.081 E7.23337
G1 X67.991 Y59.366 E7.26174
G1 X68.428 Y59.659 E7.28799
G1 X68.836 Y59.973 E7.31367
G1 X69.234 Y60.318 E7.33995
G1 X69.623 Y60.705 E7.36733
G1 X69.990 Y61.118 E7.39489
G1 X70.310 Y61.529 E7.42088
G1 X70.610 Y61.973 E7.44761
G1 X70.868 Y62.410 E7.47293
G1 X71.139 Y62.943 E7.50276
G1 X71.517 Y63.919 E7.55498
G1 X71.654 Y64.403 E7.58007
G1 X71.779 Y64.985 E7.60977
G1 X71.898 Y66.041 E7.66279
G1 X71.931 Y66.467 E7.68411
G1 X71.988 Y66.849 E7.70338
G1 X72.074 Y67.242 E7.72345
G1 X72.285 Y67.890 E7.75745
G1 X72.469 Y68.323 E7.78092
G1 X72.830 Y68.964 E7.81762
G1 X73.290 Y69.580 E7.85598
G1 X73.829 Y70.129 E7.89436
G1 X74.435 Y70.603 E7.93274
G1 X75.059 Y70.971 E7.96889
G1 X75.812 Y71.292 E8.00972
G1 X76.552 Y71.493 E8.04798
G1 X77.300 Y71.594 E8.08564
G1 X77.735 Y71.608 E8.10735
G1 X78.469 Y71.557 E8.14406
G1 X79.221 Y71.405 E8.18234
G1 X79.891 Y71.175 E8.21768
G1 X80.624 Y70.816 E8.25840
G1 X80.979 Y70.593 E8.27931
G1 X81.292 Y70.363 E8.29869
G1 X81.600 Y70.103 E8.31880
G1 X82.111 Y69.578 E8.35535
G1 X82.571 Y68.963 E8.39367
G1 X82.920 Y68.340 E8.42929
G1 X82.960 Y68.265 E8.43353
G1 X83.230 Y67.573 E8.47059
G1 X83.417 Y66.828 E8.50891
G1 X83.498 Y66.110 E8.54496
G1 X83.540 Y65.542 E8.57338
G1 X83.614 Y65.028 E8.59928
G1 X83.720 Y64.507 E8.62581
G1 X83.873 Y63.950 E8.65463
G1 X84.048 Y63.447 E8.68120
G1 X84.243 Y62.981 E8.70640
G1 X84.481 Y62.501 E8.73313
G1 X84.770 Y62.003 E8.76186
G1 X85.059 Y61.572 E8.78774
G1 X85.373 Y61.164 E8.81343
G1 X85.725 Y60.759 E8.84020
G1 X86.128 Y60.353 E8.86874
G1 X86.520 Y60.008 E8.89479
G1 X86.929 Y59.690 E8.92064
G1 X87.374 Y59.389 E8.94744
G1 X87.810 Y59.132 E8.97269
G1 X88.343 Y58.861 E9.00252
G1 X89.319 Y58.483 E9.05474
G1 X89.803 Y58.346 E9.07984
G1 X90.385 Y58.221 E9.10954
G1 X91.446 Y58.102 E9.16280
G1 X91.867 Y58.069 E9.18387
G1 X92.249 Y58.012 E9.20314
G1 X92.642 Y57.926 E9.22321
G1 X93.290 Y57.715 E9.25721
G1 X93.723 Y57.531 E9.28068
G1 X94.364 Y57.170 E9.31738
G1 X94.980 Y56.710 E9.35574
G1 X95.529 Y56.171 E9.39412
G1 X96.003 Y55.565 E9.43251
G1 X96.371 Y54.941 E9.46865
G1 X96.692 Y54.188 E9.50949
G1 X96.893 Y53.448 E9.54774
G1 X96.994 Y52.700 E9.58540
G1 X97.008 Y52.265 E9.60711
G1 X96.957 Y51.531 E9.64382
G1 X96.805 Y50.779 E9.68210
G1 X96.575 Y50.109 E9.71744
G1 X96.216 Y49.376 E9.75816
G1 X95.993 Y49.021 E9.77907
G1 X95.763 Y48.708 E9.79845
G1 X95.503 Y48.400 E9.81856
G1 X94.978 Y47.889 E9.85511
G1 X94.363 Y47.429 E9.89343
G1 X93.740 Y47.080 E9.92905
G1 X93.665 Y47.040 E9.93329
G1 X92.973 Y46.770 E9.97035
G1 X92.228 Y46.583 E10.00867
G1 X91.510 Y46.502 E10.04472
G1 X90.943 Y46.460 E10.07309
G1 X90.425 Y46.386 E10.09919
G1 X89.909 Y46.280 E10.12547
G1 X89.359 Y46.130 E10.15392
G1 X88.865 Y45.959 E10.18000
G1 X87.858 Y45.496 E10.23529
G1 X87.441 Y45.254 E10.25935
G1 X86.988 Y44.952 E10.28651
G1 X86.582 Y44.642 E10.31199
G1 X86.180 Y44.293 E10.33855
G1 X85.813 Y43.932 E10.36423
G1 X85.414 Y43.486 E10.39409
G1 X85.084 Y43.062 E10.42090
G1 X84.801 Y42.644 E10.44608
G1 X84.518 Y42.166 E10.47379
G1 X84.074 Y41.213 E10.52625
G1 X83.882 Y40.678 E10.55460
G1 X83.620 Y39.609 E10.60952
G1 X83.547 Y39.114 E10.63448
G1 X83.502 Y38.555 E10.66246
G1 X83.469 Y38.133 E10.68357
G1 X83.412 Y37.751 E10.70284
G1 X83.326 Y37.358 E10.72291
G1 X83.115 Y36.710 E10.75691
G1 X82.931 Y36.277 E10.78039
G1 X82.570 Y35.636 E10.81709
G1 X82.110 Y35.020 E10.85544
G1 X81.571 Y34.471 E10.89383
G1 X80.965 Y33.997 E10.93221
G1 X80.341 Y33.629 E10.96835
G1 X79.588 Y33.308 E11.00919
G1 X78.848 Y33.107 E11.04745
G1 X78.100 Y33.006 E11.08510
G1 X77.665 Y32.992 E11.10682
G1 X76.931 Y33.043 E11.14353
G1 X76.179 Y33.195 E11.18180
G1 X75.509 Y33.425 E11.21714
G1 X74.776 Y33.784 E11.25786
G1 X74.421 Y34.007 E11.27878
G1 X74.108 Y34.237 E11.29816
G1 X73.800 Y34.497 E11.31827
G1 X73.289 Y35.022 E11.35482
G1 X72.829 Y35.637 E11.39313
G1 X72.480 Y36.260 E11.42876
G1 X72.440 Y36.335 E11.43300
G1 X72.170 Y37.027 E11.47006
G1 X71.983 Y37.772 E11.50838
G1 X71.902 Y38.490 E11.54443
G1 X71.860 Y39.058 E11.57284
G1 X71.786 Y39.572 E11.59875
G1 X71.680 Y40.093 E11.62528
G1 X71.527 Y40.650 E11.65409
G1 X71.352 Y41.153 E11.68066
G1 X71.157 Y41.619 E11.70587
G1 X70.919 Y42.099 E11.73260
G1 X70.634 Y42.591 E11.76096
G1 X70.341 Y43.028 E11.78721
G1 X70.027 Y43.436 E11.81290
G1 X69.675 Y43.841 E11.83967
G1 X69.272 Y44.247 E11.86821
G1 X68.880 Y44.592 E11.89426
G1 X68.471 Y44.910 E11.92011
G1 X68.027 Y45.210 E11.94684
G1 X67.590 Y45.468 E11.97216
G1 X67.057 Y45.739 E12.00199
G1 X66.081 Y46.117 E12.05421
G1 X65.597 Y46.254 E12.07930
G1 X65.015 Y46.379 E12.10900
G1 X63.954 Y46.498 E12.16227
G1 X63.533 Y46.531 E12.18334
G1 X63.151 Y46.588 E12.20260
G1 X62.758 Y46.674 E12.22268
G1 X62.110 Y46.885 E12.25667
G1 X61.677 Y47.069 E12.28015
G1 X61.036 Y47.430 E12.31685
G1 X60.420 Y47.890 E12.35520
G1 X59.871 Y48.429 E12.39359
G1 X59.397 Y49.035 E12.43197
G0 F4800 X59.728 Y49.260
G1 F1200 X59.378 Y49.855 E12.46641
G1 X59.087 Y50.542 E12.50363
G1 X58.900 Y51.232 E12.53930
G1 X58.805 Y51.933 E12.57459
G1 X58.792 Y52.328 E12.59431
G1 X58.840 Y53.016 E12.62872
G1 X58.982 Y53.716 E12.66435
G1 X59.202 Y54.359 E12.69826
G1 X59.222 Y54.416 E12.70127
G1 X59.532 Y55.027 E12.73545
G1 X59.738 Y55.354 E12.75473
G1 X59.952 Y55.645 E12.77276
G1 X60.190 Y55.927 E12.79117
G1 X60.682 Y56.406 E12.82542
G1 X61.255 Y56.835 E12.86114
G1 X61.851 Y57.169 E12.89522
G1 X62.549 Y57.449 E12.93274
G1 X63.243 Y57.623 E12.96844
G1 X63.927 Y57.699 E13.00277
G1 X64.499 Y57.742 E13.03139
G1 X65.046 Y57.820 E13.05896
G1 X65.586 Y57.931 E13.08646
G1 X66.165 Y58.089 E13.11640
G1 X66.693 Y58.273 E13.14430
G1 X67.191 Y58.482 E13.17124
G1 X67.680 Y58.724 E13.19846
G1 X68.199 Y59.025 E13.22840
G1 X68.670 Y59.340 E13.25666
G1 X69.084 Y59.659 E13.28274
G1 X69.511 Y60.029 E13.31093
G1 X69.906 Y60.422 E13.33873
G1 X70.299 Y60.864 E13.36823
G1 X70.639 Y61.301 E13.39586
G1 X70.942 Y61.748 E13.42280
G1 X71.225 Y62.229 E13.45064
G1 X71.498 Y62.767 E13.48074
G1 X71.709 Y63.263 E13.50763
G1 X71.898 Y63.798 E13.53594
G1 X72.040 Y64.296 E13.56178
G1 X72.171 Y64.904 E13.59280
G1 X72.251 Y65.451 E13.62038
G1 X72.297 Y66.010 E13.64837
G1 X72.328 Y66.422 E13.66898
G1 X72.382 Y66.776 E13.68685
G1 X72.460 Y67.137 E13.70527
G1 X72.664 Y67.762 E13.73807
G1 X72.827 Y68.145 E13.75884
G1 X73.165 Y68.745 E13.79320
G1 X73.595 Y69.319 E13.82898
G1 X74.096 Y69.830 E13.86468
G1 X74.660 Y70.272 E13.90043
G1 X75.255 Y70.622 E13.93487
G1 X75.942 Y70.913 E13.97209
G1 X76.632 Y71.100 E14.00776
G1 X77.333 Y71.195 E14.04305
G1 X77.728 Y71.208 E14.06277
G1 X78.416 Y71.160 E14.09718
G1 X79.116 Y71.018 E14.13281
G1 X79.759 Y70.798 E14.16671
G1 X79.816 Y70.778 E14.16973
G1 X80.427 Y70.468 E14.20391
G1 X80.754 Y70.262 E14.22319
G1 X81.045 Y70.048 E14.24121
G1 X81.327 Y69.810 E14.25962
G1 X81.806 Y69.318 E14.29388
G1 X82.235 Y68.745 E14.32959
G1 X82.569 Y68.149 E14.36368
G1 X82.849 Y67.451 E14.40120
G1 X83.023 Y66.757 E14.43689
G1 X83.099 Y66.073 E14.47123
G1 X83.142 Y65.501 E14.49985
G1 X83.220 Y64.954 E14.52741
G1 X83.331 Y64.414 E14.55492
G1 X83.489 Y63.835 E14.58486
G1 X83.673 Y63.307 E14.61275
G1 X83.882 Y62.809 E14.63970
G1 X84.124 Y62.320 E14.66692
G1 X84.425 Y61.801 E14.69685
G1 X84.740 Y61.330 E14.72512
G1 X85.057 Y60.918 E14.75106
G1 X85.429 Y60.490 E14.77935
G1 X85.855 Y60.061 E14.80951
G1 X86.266 Y59.700 E14.83680
G1 X86.701 Y59.361 E14.86432
G1 X87.148 Y59.058 E14.89126
G1 X87.629 Y58.775 E14.91910
G1 X88.167 Y58.502 E14.94920
G1 X88.663 Y58.291 E14.97609
G1 X89.198 Y58.102 E15.00440
G1 X89.703 Y57.958 E15.03060
G1 X90.304 Y57.829 E15.06126
G1 X90.851 Y57.749 E15.08884
G1 X91.413 Y57.703 E15.11698
G1 X91.822 Y57.672 E15.13744
G1 X92.176 Y57.618 E15.15531
G1 X92.537 Y57.540 E15.17373
G1 X93.162 Y57.336 E15.20653
G1 X93.545 Y57.173 E15.22730
G1 X94.145 Y56.835 E15.26166
G1 X94.719 Y56.405 E15.29744
G1 X95.230 Y55.904 E15.33314
G1 X95.672 Y55.340 E15.36889
G1 X96.022 Y54.745 E15.40333
G1 X96.313 Y54.058 E15.44055
G1 X96.500 Y53.368 E15.47622
G1 X96.595 Y52.667 E15.51151
G1 X96.608 Y52.272 E15.53123
G1 X96.560 Y51.584 E15.56563
G1 X96.418 Y50.884 E15.60127
G1 X96.198 Y50.241 E15.63517
G1 X96.178 Y50.184 E15.63819
G1 X95.868 Y49.573 E15.67237
G1 X95.662 Y49.246 E15.69165
G1 X95.448 Y48.955 E15.70967
G1 X95.210 Y48.673 E15.72808
G1 X94.718 Y48.194 E15.76234
G1 X94.145 Y47.765 E15.79805
G1 X93.549 Y47.431 E15.83214
G1 X92.851 Y47.151 E15.86966
G1 X92.157 Y46.977 E15.90535
G1 X91.473 Y46.901 E15.93969
G1 X90.902 Y46.858 E15.96826
G1 X90.355 Y46.780 E15.99582
G1 X89.817 Y46.670 E16.02322
G1 X89.240 Y46.513 E16.05305
G1 X88.719 Y46.331 E16.08058
G1 X88.243 Y46.131 E16.10634
G1 X87.670 Y45.850 E16.13818
G1 X87.229 Y45.593 E16.16365
G1 X86.765 Y45.285 E16.19143
G1 X86.312 Y44.938 E16.21990
G1 X85.911 Y44.591 E16.24636
